packages/ffe-icons/icons/open/400/sm/pan_tool_alt.svg

<svg xmlns="http://www.w3.org/2000/svg" height="20" viewBox="0 -960 960 960" width="20"><path d="M412-96q-22 0-41-9t-33-26L68-457q-10-11-7-26.5T75-510q17-17 41.5-20.5T162-521l126 74v-381q0-15.3 10.289-25.65 10.29-10.35 25.5-10.35Q339-864 349.5-853.65 360-843.3 360-828v444q0 21.447-18 31.723Q324-342 306-353l-111-65 199 241q3.545 4.2 8.273 6.6Q407-168 412-168h259.619Q702-168 723-189.15T744-240v-348q0-15.3 10.289-25.65 10.29-10.35 25.5-10.35Q795-624 805.5-613.65 816-603.3 816-588v348q0 60-42 102T672-96H412Zm58-242Zm5.789-382Q491-720 501.5-709.65 512-699.3 512-684v192q0 15.3-10.289 25.65-10.29 10.35-25.5 10.35Q461-456 450.5-466.35 440-476.7 440-492v-192q0-15.3 10.289-25.65 10.29-10.35 25.5-10.35Zm152 48Q643-672 653.5-661.666q10.5 10.334 10.5 25.611v143.779Q664-477 653.711-466.5q-10.29 10.5-25.5 10.5Q613-456 602.5-466.334 592-476.668 592-491.945v-143.779Q592-651 602.289-661.5q10.29-10.5 25.5-10.5Z"/></svg>

<svg xmlns="http://www.w3.org/2000/svg" height="20" viewBox="0 -960 960 960" width="20"><path d="M412-96q-22 0-41-9t-33-26L68-457q-10-11-7-26.5T75-510q17-17 41.5-20.5T162-521l126 74v-381q0-15.3 10.29-25.65Q308.58-864 323.79-864t25.71 10.35Q360-843.3 360-828v444q0 21.45-18 31.72-18 10.28-36-.72l-111-65 199 241q3.55 4.2 8.27 6.6Q407-168 412-168h259.62Q702-168 723-189.15q21-21.15 21-50.85v-348q0-15.3 10.29-25.65Q764.58-624 779.79-624t25.71 10.35Q816-603.3 816-588v348q0 60-42 102T672-96H412Zm58-242Zm5.79-382q15.21 0 25.71 10.35T512-684v192q0 15.3-10.29 25.65Q491.42-456 476.21-456t-25.71-10.35Q440-476.7 440-492v-192q0-15.3 10.29-25.65Q460.58-720 475.79-720Zm152 48q15.21 0 25.71 10.33 10.5 10.34 10.5 25.61v143.78q0 15.28-10.29 25.78-10.29 10.5-25.5 10.5t-25.71-10.33Q592-476.67 592-491.94v-143.78q0-15.28 10.29-25.78 10.29-10.5 25.5-10.5Z"/></svg>
